assets/img/braze_icons/zap-circle.svg

<svg fill="none" height="24" viewBox="0 0 24 24" width="24" xmlns="http://www.w3.org/2000/svg"><path clip-rule="evenodd" d="m12 1c-6.07513 0-11 4.92487-11 11 0 6.0751 4.92487 11 11 11 6.0751 0 11-4.9249 11-11 0-6.07513-4.9249-11-11-11zm-4.63844 11.2468 4.63844-6.7468v5h3.9791c.4929 0 .7394 0 .8737.1025.117.0893.1887.2257.196.3727.0084.1688-.1312.3719-.4104.778l-4.6384 6.7468v-5h-3.97921c-.49287 0-.73931 0-.87366-.1025-.11701-.0893-.18873-.2257-.19603-.3727-.00838-.1688.13123-.3719.41046-.778z" fill="#801ed7" fill-rule="evenodd"/></svg>

<svg width="24" height="24" viewBox="0 0 24 24" fill="none" xmlns="http://www.w3.org/2000/svg">
<path fill-rule="evenodd" clip-rule="evenodd" d="M12 1C5.92487 1 1 5.92487 1 12C1 18.0751 5.92487 23 12 23C18.0751 23 23 18.0751 23 12C23 5.92487 18.0751 1 12 1ZM7.36156 12.2468L12 5.5V10.5H15.9791C16.472 10.5 16.7185 10.5 16.8528 10.6025C16.9698 10.6918 17.0415 10.8282 17.0488 10.9752C17.0572 11.144 16.9176 11.3471 16.6384 11.7532L12 18.5V13.5H8.02079C7.52792 13.5 7.28148 13.5 7.14713 13.3975C7.03012 13.3082 6.9584 13.1718 6.9511 13.0248C6.94272 12.856 7.08233 12.6529 7.36156 12.2468Z" fill="#801ED7"/>
</svg>
